src/icons/roblox.svg

<?xml version="1.0" encoding="UTF-8"?>
<svg version="1.1" viewBox="0 0 500 500" xmlns="http://www.w3.org/2000/svg">
 <path class="st0" d="m127.87 38.084 334.05 89.432-36.055 135.03-199.37-53.377-10.251 38.177-134.68-36.056zm244.26 423.83-334.05-89.432 36.056-135.03 199.01 53.377 10.251-38.176 135.03 36.055z" clip-rule="evenodd" fill="#42a5f5" fill-rule="evenodd" stroke-width=".96717"/>
</svg>

<svg viewBox="0 0 500 500" xmlns="http://www.w3.org/2000/svg">
  <path
    d="M127.87 38.084L461.92 127.516L425.865 262.546L226.495 209.169L216.244 247.346L81.564 211.29L127.87 38.084ZM372.13 461.914L38.08 372.482L74.136 237.452L273.146 290.829L283.397 252.653L418.427 288.708L372.13 461.914Z"
    fill="#42A5F5"
  />
</svg>
